X:15
T:Utca utca sáros utca
M:4/4
L:1/4
K:D
d/c/B/A/ B/A/G/F/ | EFGA | D2 D z |
AFAd | fedB | A2 A z |
AFAd | fedB | e2 d2 |
d/c/B/c/ d/A/G/F/ | E>F G<A | D2 D z |

